Origami/24x24/apps/wesnoth_editor.svg

<svg width="24" height="24" version="1" xmlns="http://www.w3.org/2000/svg">
 <g transform="matrix(.056109 0 0 .056714 1.60682 2)" style="fill:#4f4f4f">
  <path d="m324.48 51.943-146.49-51.658c-1.076-0.38-2.25-0.38-3.326 0l-146.49 51.658c-1.999 0.705-3.337 2.595-3.337 4.715 0 52.278 13.834 112.71 37.956 165.8 19.566 43.069 54.751 100.52 111.25 129.62 0.719 0.37 1.504 0.555 2.29 0.555s1.571-0.185 2.29-0.555c56.496-29.106 91.68-86.556 111.25-129.62 24.121-53.094 37.955-113.53 37.955-165.8 0-2.12-1.338-4.01-3.337-4.715z" style="fill:#4f4f4f"/>
 </g>
 <g transform="matrix(.029704 0 0 .031193 6.2624 6.5004)" style="opacity:.2">
  <path d="m324.48 51.943-146.49-51.658c-1.076-0.38-2.25-0.38-3.326 0l-146.49 51.658c-1.999 0.705-3.337 2.595-3.337 4.715 0 52.278 13.834 112.71 37.956 165.8 19.566 43.069 54.751 100.52 111.25 129.62 0.719 0.37 1.504 0.555 2.29 0.555s1.571-0.185 2.29-0.555c56.496-29.106 91.68-86.556 111.25-129.62 24.121-53.094 37.955-113.53 37.955-165.8 0-2.12-1.338-4.01-3.337-4.715z"/>
 </g>
 <g transform="matrix(.029704 0 0 .031193 6.2624 6.0004)" style="fill:#067bff">
  <path d="m324.48 51.943-146.49-51.658c-1.076-0.38-2.25-0.38-3.326 0l-146.49 51.658c-1.999 0.705-3.337 2.595-3.337 4.715 0 52.278 13.834 112.71 37.956 165.8 19.566 43.069 54.751 100.52 111.25 129.62 0.719 0.37 1.504 0.555 2.29 0.555s1.571-0.185 2.29-0.555c56.496-29.106 91.68-86.556 111.25-129.62 24.121-53.094 37.955-113.53 37.955-165.8 0-2.12-1.338-4.01-3.337-4.715z" style="fill:#067bff"/>
 </g>
 <path d="m11.500161 2.0000227c-0.0315 0-0.0625 0.00585-0.093 0.0166l-8.2196621 2.9296782c-0.1121522 0.03995-0.1875037 0.1461989-0.1875037 0.266698 0 0.134999 0.01045 0.275998 0.01365 0.412997 0.0264-0.082999 0.089752-0.1494989 0.1738534-0.1794987l8.2196604-2.9298783c0.0605-0.02155 0.126502-0.02155 0.187004 0l8.21866 2.9298783c0.084 0.03 0.147503 0.096499 0.174003 0.1794987 3e-3 -0.136999 0.0135-0.277998 0.0135-0.412997 0-0.1204991-0.0755-0.2267483-0.187503-0.266698l-8.21866-2.9296783c-0.0305-0.01075-0.0625-0.0166-0.094-0.0166z" style="fill:#ffffff;opacity:.1"/>
 <g transform="matrix(.056109 0 0 .056714 1.60682 2.5)" style="opacity:.2">
  <path transform="matrix(8.9114,0,0,8.8161,-37.55,-35.264)" d="m7.0273 10.258c-0.0164 0.053-0.0273 0.11-0.0273 0.168 0 5.93 1.5529 12.786 4.26 18.808 2.195 4.886 6.142 11.402 12.482 14.704 0.081 0.041 0.17 0.062 0.258 0.062s0.177-0.021 0.258-0.062c6.34-3.302 10.286-9.818 12.482-14.704 2.707-6.022 4.26-12.878 4.26-18.808 0-0.058-0.011-0.115-0.027-0.168-0.136 5.735-1.65 12.231-4.233 17.976-2.196 4.886-6.142 11.402-12.482 14.704-0.081 0.041-0.17 0.062-0.258 0.062s-0.177-0.021-0.258-0.062c-6.34-3.302-10.287-9.818-12.482-14.704-2.5827-5.745-4.0974-12.241-4.2327-17.976z"/>
 </g>
 <path d="m7.5596342 7.0576932 1.7232166-0.9948997 7.9591982 13.785736 0.382017 2.651471-2.105233-1.656571z" style="opacity:.2"/>
 <path d="M 7.5596342,6.5576932 9.2828508,5.5627935 17.242049,19.348529 17.624066,22 15.518833,20.343429 Z" style="fill:#ffffff"/>
 <path d="m6.3106848 1.5033742c-0.062263 0.0078-0.1237551 0.028735-0.1816861 0.062181l-0.8870542 0.5110523c-0.2317226 0.133785-0.3106126 0.4279815-0.176828 0.659704l1.5001223 2.5970382-1.3058059 0.7539473c-0.2317226 0.1337852-0.3106127 0.4279815-0.1768275 0.6597041l0.5120232 0.8870541c0.1337851 0.2317226 0.4279815 0.3106132 0.6597041 0.1768281l4.3332553-2.5018232c0.231723-0.133785 0.310613-0.4279814 0.176828-0.659704l-0.512024-0.8870542c-0.133785-0.2317226-0.4279814-0.310613-0.6597044-0.1768279l-1.3048341 0.7529759-1.4991507-2.5970381c-0.1003387-0.173792-0.2912301-0.261441-0.478018-0.2380376z" style="opacity:.2"/>
 <path d="m6.3106848 1.0037287c-0.062263 0.0078-0.1237551 0.028735-0.1816861 0.062181l-0.8870542 0.5110523c-0.2317226 0.133785-0.3106126 0.4279815-0.176828 0.659704l1.5001223 2.5970382-1.3058059 0.7539473c-0.2317226 0.1337852-0.3106127 0.4279815-0.1768275 0.6597041l0.5120232 0.8870541c0.1337851 0.2317226 0.4279815 0.3106132 0.6597041 0.1768281l4.3332553-2.5018232c0.231723-0.133785 0.310613-0.4279814 0.176828-0.659704l-0.512024-0.8870542c-0.133785-0.2317226-0.4279814-0.310613-0.6597044-0.1768279l-1.3048341 0.7529759-1.4991507-2.5970381c-0.1003387-0.173792-0.2912301-0.261441-0.478018-0.2380376z" style="fill:#3f3f3f"/>
 <path d="M 15.464432,7.0576932 13.741215,6.0627935 5.782017,19.848529 5.4,22.5 7.505233,20.843429 Z" style="opacity:.2"/>
 <path d="M 15.464432,6.5576932 13.741215,5.5627935 5.782017,19.348529 5.4,22 7.505233,20.343429 Z" style="fill:#ffffff"/>
 <path d="m16.713381 1.5033742c0.06226 0.0078 0.123755 0.028735 0.181686 0.062181l0.887055 0.5110523c0.231722 0.133785 0.310612 0.4279815 0.176828 0.659704l-1.500123 2.5970382 1.305806 0.7539473c0.231723 0.1337852 0.310613 0.4279815 0.176828 0.6597041l-0.512024 0.8870541c-0.133785 0.2317226-0.427981 0.3106132-0.659704 0.1768281l-4.333255-2.5018232c-0.231723-0.133785-0.310613-0.4279814-0.176828-0.659704l0.512024-0.8870542c0.133785-0.2317226 0.427981-0.310613 0.659704-0.1768279l1.304835 0.7529759 1.49915-2.5970381c0.100339-0.173792 0.29123-0.261441 0.478018-0.2380376z" style="opacity:.2"/>
 <path d="m16.713381 1.0037287c0.06226 0.0078 0.123755 0.028735 0.181686 0.062181l0.887055 0.5110523c0.231722 0.133785 0.310612 0.4279815 0.176828 0.659704l-1.500123 2.5970382 1.305806 0.7539473c0.231723 0.1337852 0.310613 0.4279815 0.176828 0.6597041l-0.512024 0.8870541c-0.133785 0.2317226-0.427981 0.3106132-0.659704 0.1768281l-4.333255-2.5018232c-0.231723-0.133785-0.310613-0.4279814-0.176828-0.659704l0.512024-0.8870542c0.133785-0.2317226 0.427981-0.310613 0.659704-0.1768279l1.304835 0.7529759 1.49915-2.5970381c0.100339-0.173792 0.29123-0.261441 0.478018-0.2380376z" style="fill:#3f3f3f"/>
</svg>

<svg xmlns="http://www.w3.org/2000/svg" width="24" height="24" version="1">
 <g style="fill:#4f4f4f" transform="matrix(0.056109,0,0,0.056714,1.60682,2)">
  <path style="fill:#4f4f4f" d="M 324.48,51.943 177.99,0.285 c -1.076,-0.38 -2.25,-0.38 -3.326,0 L 28.174,51.943 c -1.999,0.705 -3.337,2.595 -3.337,4.715 0,52.278 13.834,112.71 37.956,165.8 19.566,43.069 54.751,100.52 111.25,129.62 0.719,0.37 1.504,0.555 2.29,0.555 0.786,0 1.571,-0.185 2.29,-0.555 56.496,-29.106 91.68,-86.556 111.25,-129.62 24.121,-53.094 37.955,-113.53 37.955,-165.8 0,-2.12 -1.338,-4.01 -3.337,-4.715 z"/>
 </g>
 <g style="opacity:0.2" transform="matrix(0.029704,0,0,0.031193,6.2624,6.5004)">
  <path d="M 324.48,51.943 177.99,0.285 c -1.076,-0.38 -2.25,-0.38 -3.326,0 L 28.174,51.943 c -1.999,0.705 -3.337,2.595 -3.337,4.715 0,52.278 13.834,112.71 37.956,165.8 19.566,43.069 54.751,100.52 111.25,129.62 0.719,0.37 1.504,0.555 2.29,0.555 0.786,0 1.571,-0.185 2.29,-0.555 56.496,-29.106 91.68,-86.556 111.25,-129.62 24.121,-53.094 37.955,-113.53 37.955,-165.8 0,-2.12 -1.338,-4.01 -3.337,-4.715 z"/>
 </g>
 <g style="fill:#067bff" transform="matrix(0.029704,0,0,0.031193,6.2624,6.0004)">
  <path style="fill:#067bff" d="M 324.48,51.943 177.99,0.285 c -1.076,-0.38 -2.25,-0.38 -3.326,0 L 28.174,51.943 c -1.999,0.705 -3.337,2.595 -3.337,4.715 0,52.278 13.834,112.71 37.956,165.8 19.566,43.069 54.751,100.52 111.25,129.62 0.719,0.37 1.504,0.555 2.29,0.555 0.786,0 1.571,-0.185 2.29,-0.555 56.496,-29.106 91.68,-86.556 111.25,-129.62 24.121,-53.094 37.955,-113.53 37.955,-165.8 0,-2.12 -1.338,-4.01 -3.337,-4.715 z"/>
 </g>
 <path style="opacity:0.1;fill:#ffffff" d="m 11.500161,2.0000227 c -0.0315,0 -0.0625,0.00585 -0.093,0.0166 L 3.1874989,4.9463009 c -0.1121522,0.03995 -0.1875037,0.1461989 -0.1875037,0.266698 0,0.134999 0.01045,0.275998 0.01365,0.412997 0.0264,-0.082999 0.089752,-0.1494989 0.1738534,-0.1794987 L 11.407159,2.5166189 c 0.0605,-0.02155 0.126502,-0.02155 0.187004,0 l 8.21866,2.9298783 c 0.084,0.03 0.147503,0.096499 0.174003,0.1794987 0.003,-0.136999 0.0135,-0.277998 0.0135,-0.412997 0,-0.1204991 -0.0755,-0.2267483 -0.187503,-0.266698 l -8.21866,-2.9296783 c -0.0305,-0.01075 -0.0625,-0.0166 -0.094,-0.0166 z"/>
 <g style="opacity:0.2" transform="matrix(0.056109,0,0,0.056714,1.60682,2.5)">
  <path d="M 7.0273,10.258 C 7.0109,10.311 7,10.368 7,10.426 c 0,5.93 1.5529,12.786 4.26,18.808 2.195,4.886 6.142,11.402 12.482,14.704 C 23.823,43.979 23.912,44 24,44 24.088,44 24.177,43.979 24.258,43.938 30.598,40.636 34.544,34.12 36.74,29.234 39.447,23.212 41,16.356 41,10.426 41,10.368 40.989,10.311 40.973,10.258 40.837,15.993 39.323,22.489 36.74,28.234 34.544,33.12 30.598,39.636 24.258,42.938 24.177,42.979 24.088,43 24,43 23.912,43 23.823,42.979 23.742,42.938 17.402,39.636 13.455,33.12 11.26,28.234 8.6773,22.489 7.1626,15.993 7.0273,10.258 Z" transform="matrix(8.9114,0,0,8.8161,-37.55,-35.264)"/>
 </g>
 <path style="opacity:0.2" d="M 7.5596342,7.0576932 9.2828508,6.0627935 17.242049,19.848529 17.624066,22.5 15.518833,20.843429 Z"/>
 <path style="fill:#ffffff" d="M 7.5596342,6.5576932 9.2828508,5.5627935 17.242049,19.348529 17.624066,22 15.518833,20.343429 Z"/>
 <path style="opacity:0.2" d="m 6.3106848,1.5033742 c -0.062263,0.0078 -0.1237551,0.028735 -0.1816861,0.062181 L 5.2419445,2.0766075 C 5.0102219,2.2103925 4.9313319,2.504589 5.0651165,2.7363115 L 6.5652388,5.3333497 5.2594329,6.087297 C 5.0277103,6.2210822 4.9488202,6.5152785 5.0826054,6.7470011 L 5.5946286,7.6340552 C 5.7284137,7.8657778 6.0226101,7.9446684 6.2543327,7.8108833 L 10.587588,5.3090601 c 0.231723,-0.133785 0.310613,-0.4279814 0.176828,-0.659704 L 10.252392,3.7623019 C 10.118607,3.5305793 9.8244106,3.4516889 9.5926876,3.585474 L 8.2878535,4.3384499 6.7887028,1.7414118 C 6.6883641,1.5676198 6.4974727,1.4799708 6.3106848,1.5033742 Z"/>
 <path style="fill:#3f3f3f" d="m 6.3106848,1.0037287 c -0.062263,0.0078 -0.1237551,0.028735 -0.1816861,0.062181 L 5.2419445,1.576962 C 5.0102219,1.710747 4.9313319,2.0049435 5.0651165,2.236666 L 6.5652388,4.8337042 5.2594329,5.5876515 C 5.0277103,5.7214367 4.9488202,6.015633 5.0826054,6.2473556 L 5.5946286,7.1344097 C 5.7284137,7.3661323 6.0226101,7.4450229 6.2543327,7.3112378 L 10.587588,4.8094146 c 0.231723,-0.133785 0.310613,-0.4279814 0.176828,-0.659704 L 10.252392,3.2626564 C 10.118607,3.0309338 9.8244106,2.9520434 9.5926876,3.0858285 L 8.2878535,3.8388044 6.7887028,1.2417663 C 6.6883641,1.0679743 6.4974727,0.9803253 6.3106848,1.0037287 Z"/>
 <path style="opacity:0.2" d="M 15.464432,7.0576932 13.741215,6.0627935 5.782017,19.848529 5.4,22.5 7.505233,20.843429 Z"/>
 <path style="fill:#ffffff" d="M 15.464432,6.5576932 13.741215,5.5627935 5.782017,19.348529 5.4,22 7.505233,20.343429 Z"/>
 <path style="opacity:0.2" d="m 16.713381,1.5033742 c 0.06226,0.0078 0.123755,0.028735 0.181686,0.062181 l 0.887055,0.5110523 c 0.231722,0.133785 0.310612,0.4279815 0.176828,0.659704 l -1.500123,2.5970382 1.305806,0.7539473 c 0.231723,0.1337852 0.310613,0.4279815 0.176828,0.6597041 L 17.429437,7.6340552 C 17.295652,7.8657778 17.001456,7.9446684 16.769733,7.8108833 L 12.436478,5.3090601 C 12.204755,5.1752751 12.125865,4.8810787 12.25965,4.6493561 l 0.512024,-0.8870542 c 0.133785,-0.2317226 0.427981,-0.310613 0.659704,-0.1768279 l 1.304835,0.7529759 1.49915,-2.5970381 c 0.100339,-0.173792 0.29123,-0.261441 0.478018,-0.2380376 z"/>
 <path style="fill:#3f3f3f" d="m 16.713381,1.0037287 c 0.06226,0.0078 0.123755,0.028735 0.181686,0.062181 l 0.887055,0.5110523 c 0.231722,0.133785 0.310612,0.4279815 0.176828,0.659704 l -1.500123,2.5970382 1.305806,0.7539473 c 0.231723,0.1337852 0.310613,0.4279815 0.176828,0.6597041 L 17.429437,7.1344097 C 17.295652,7.3661323 17.001456,7.4450229 16.769733,7.3112378 L 12.436478,4.8094146 C 12.204755,4.6756296 12.125865,4.3814332 12.25965,4.1497106 l 0.512024,-0.8870542 c 0.133785,-0.2317226 0.427981,-0.310613 0.659704,-0.1768279 l 1.304835,0.7529759 1.49915,-2.5970381 c 0.100339,-0.173792 0.29123,-0.261441 0.478018,-0.2380376 z"/>
</svg>
